Obsidian-SemiLight/actions/24s/audio-volume-muted.svg

<svg viewBox="0 0 24 24" xmlns="http://www.w3.org/2000/svg"><path d="m11.988281 4-4.988281 4.9902344v.0097656 1 4 1 .009766l4.988281 4.990234h1.011719v-.402344-15.1953122-.4023438zm-7.988281 5v1 4 1h2v-1-4-1z" fill="#4d4d4d"/><path d="m14 11v2h6v-2z" fill="#da4453"/></svg>

<svg xmlns="http://www.w3.org/2000/svg" viewBox="0 0 24 24">
  <defs id="defs3051">
    <style type="text/css" id="current-color-scheme">
      .ColorScheme-Text {
        color:#4d4d4d;
      }
      .ColorScheme-NegativeText {
        color:#da4453;
      }
      </style>
  </defs>
  <path 
     style="fill:currentColor;fill-opacity:1;stroke:none" 
     d="M 11.988281 4 L 7 8.9902344 L 7 9 L 7 10 L 7 14 L 7 15 L 7 15.009766 L 11.988281 20 L 13 20 L 13 19.597656 L 13 4.4023438 L 13 4 L 11.988281 4 z M 4 9 L 4 10 L 4 14 L 4 15 L 6 15 L 6 14 L 6 10 L 6 9 L 4 9 z "
     class="ColorScheme-Text"/>
  <path
     style="fill:currentColor;fill-opacity:1;stroke:none" 
     d="M 14 11 L 14 13 L 20 13 L 20 11 L 14 11 z "
     class="ColorScheme-NegativeText"
     />
</svg>
